icons/crop-fill.svg

<svg viewBox="0 0 24 24" fill="currentColor" xmlns="http://www.w3.org/2000/svg">
    <path d="M19 17H22V19H19V22H17V19H6C5.44772 19 5 18.5523 5 18V7H2V5H5V2H7V5H18C18.5523 5 19 5.44772 19 6V17Z"/>
</svg>

<svg xmlns="http://www.w3.org/2000/svg" viewBox="0 0 24 24">
    <g>
        <path fill="none" d="M0 0h24v24H0z"/>
        <path d="M19 17h3v2h-3v3h-2v-3H6a1 1 0 0 1-1-1V7H2V5h3V2h2v3h11a1 1 0 0 1 1 1v11z"/>
    </g>
</svg>
